images/stacked-peaks-haikei.svg

<svg width="900" height="600" xmlns="http://www.w3.org/2000/svg"><path d="m0 49 47 24 48 24 47-36 47-18 48 30 47 12 48-30 47 48 47-18 48-18 47-24 47 42 48-42 47 66 48-6 47-66 47 66 48-42 47 24V0H0Z" fill="#133248"/><path d="m0 169 47 6 48 36 47-78 47-18 48 120 47-18 48-60 47 78 47-72 48 6 47 6 47 30 48 6 47 48 48-90 47 12 47-12 48 30 47 18V83l-47-24-48 42-47-66-47 66-48 6-47-66-48 42-47-42-47 24-48 18-47 18-47-48-48 30-47-12-48-30-47 18-47 36-48-24L0 47Z" fill="#133a54"/><path d="m0 283 47 18 48 18 47-66 47 42 48 18 47 6 48-30h94l48 12 47-12 47-18 48 6 47 42 48-18 47-18 47 18 48-18 47-18v-50l-47-18-48-30-47 12-47-12-48 90-47-48-48-6-47-30-47-6-48-6-47 72-47-78-48 60-47 18-48-120-47 18-47 78-48-36-47-6Z" fill="#124260"/><path d="m0 319 47 12 48 24 47-84 47 54 48 6h47l48-6 47 6 47-18 48 24 47-18 47-12 48-12 47 54 48-24 47-24 47 36 48-18 47-42v-14l-47 18-48 18-47-18-47 18-48 18-47-42-48-6-47 18-47 12-48-12h-94l-48 30-47-6-48-18-47-42-47 66-48-18-47-18Z" fill="#104b6c"/><path d="M0 349h47l48 24 47-78 47 54 48 12h47l48-12 47 12 47-18 48 24 47-36 47-12 48 6 47 36 48-24 47-6 47 36 48-18 47-42v-32l-47 42-48 18-47-36-47 24-48 24-47-54-48 12-47 12-47 18-48-24-47 18-47-6-48 6h-47l-48-6-47-54-47 84-48-24-47-12Z" fill="#0c5379"/><path d="m0 379 47-6 48 24 47-60 47 42 48 30 47-24 48-18 47 48 47-30 48 12 47-48 47 18h48l47 30 48-18 47-12 47 42 48-36 47-24v-44l-47 42-48 18-47-36-47 6-48 24-47-36-48-6-47 12-47 36-48-24-47 18-47-12-48 12h-47l-48-12-47-54-47 78-48-24H0Z" fill="#0a577e"/><path d="m0 403 47 6 48 18 47-66 47 48 48 24 47-12 48-24 47 36 47-12 48-12 47-42 47 36 48-24 47 54 48-30 47-6 47 24 48-24 47-24v-26l-47 24-48 36-47-42-47 12-48 18-47-30h-48l-47-18-47 48-48-12-47 30-47-48-48 18-47 24-48-30-47-42-47 60-48-24-47 6Z" fill="#0a577e"/><path d="m0 421 47 36 48 18 47-54 47 42 48 24 47-18 48-12 47 6 47-18 48 24 47-48 47 24 48 6 47 6h48l47-18 47 24 48-42 47 6v-56l-47 24-48 24-47-24-47 6-48 30-47-54-48 24-47-36-47 42-48 12-47 12-47-36-48 24-47 12-48-24-47-48-47 66-48-18-47-6Z" fill="#0c5379"/><path d="m0 463 47 12 48 24 47-42 47 42 48 12 47-24h48l47-12h47l48 42 47-66 47 12 48 12 47-6 48 12 47-18 47 24 48-30 47 12v-44l-47-6-48 42-47-24-47 18h-48l-47-6-48-6-47-24-47 48-48-24-47 18-47-6-48 12-47 18-48-24-47-42-47 54-48-18-47-36Z" fill="#104b6c"/><path d="m0 511 47 12h48l47-18 47 18 48 18 47-36 48 30 47-12 47-12 48 36 47-42 47 6 48-12 47 18 48-12 47-18 47 42 48-24 47 6v-44l-47-12-48 30-47-24-47 18-48-12-47 6-48-12-47-12-47 66-48-42h-47l-47 12h-48l-47 24-48-12-47-42-47 42-48-24-47-12Z" fill="#124260"/><path d="m0 529 47 12h48l47-12 47 12 48 18 47-30 48 36 47-6 47-18 48 18 47-42 47 30 48-30 47 30 48-30h47l47 48 48-30 47 6v-32l-47-6-48 24-47-42-47 18-48 12-47-18-48 12-47-6-47 42-48-36-47 12-47 12-48-30-47 36-48-18-47-18-47 18H47L0 509Z" fill="#133a54"/><path d="M0 601h900v-62l-47-6-48 30-47-48h-47l-48 30-47-30-48 30-47-30-47 42-48-18-47 18-47 6-48-36-47 30-48-18-47-12-47 12H47L0 527Z" fill="#133248"/></svg>

<svg id="mainBackground" viewBox="0 0 900 600" width="900" height="600" xmlns="http://www.w3.org/2000/svg" xmlns:xlink="http://www.w3.org/1999/xlink" version="1.1"><path d="M0 49L47 73L95 97L142 61L189 43L237 73L284 85L332 55L379 103L426 85L474 67L521 43L568 85L616 43L663 109L711 103L758 37L805 103L853 61L900 85L900 0L853 0L805 0L758 0L711 0L663 0L616 0L568 0L521 0L474 0L426 0L379 0L332 0L284 0L237 0L189 0L142 0L95 0L47 0L0 0Z" fill="#133248"></path><path d="M0 169L47 175L95 211L142 133L189 115L237 235L284 217L332 157L379 235L426 163L474 169L521 175L568 205L616 211L663 259L711 169L758 181L805 169L853 199L900 217L900 83L853 59L805 101L758 35L711 101L663 107L616 41L568 83L521 41L474 65L426 83L379 101L332 53L284 83L237 71L189 41L142 59L95 95L47 71L0 47Z" fill="#133a54"></path><path d="M0 283L47 301L95 319L142 253L189 295L237 313L284 319L332 289L379 289L426 289L474 301L521 289L568 271L616 277L663 319L711 301L758 283L805 301L853 283L900 265L900 215L853 197L805 167L758 179L711 167L663 257L616 209L568 203L521 173L474 167L426 161L379 233L332 155L284 215L237 233L189 113L142 131L95 209L47 173L0 167Z" fill="#124260"></path><path d="M0 319L47 331L95 355L142 271L189 325L237 331L284 331L332 325L379 331L426 313L474 337L521 319L568 307L616 295L663 349L711 325L758 301L805 337L853 319L900 277L900 263L853 281L805 299L758 281L711 299L663 317L616 275L568 269L521 287L474 299L426 287L379 287L332 287L284 317L237 311L189 293L142 251L95 317L47 299L0 281Z" fill="#104b6c"></path><path d="M0 349L47 349L95 373L142 295L189 349L237 361L284 361L332 349L379 361L426 343L474 367L521 331L568 319L616 325L663 361L711 337L758 331L805 367L853 349L900 307L900 275L853 317L805 335L758 299L711 323L663 347L616 293L568 305L521 317L474 335L426 311L379 329L332 323L284 329L237 329L189 323L142 269L95 353L47 329L0 317Z" fill="#0c5379"></path><path d="M0 379L47 373L95 397L142 337L189 379L237 409L284 385L332 367L379 415L426 385L474 397L521 349L568 367L616 367L663 397L711 379L758 367L805 409L853 373L900 349L900 305L853 347L805 365L758 329L711 335L663 359L616 323L568 317L521 329L474 365L426 341L379 359L332 347L284 359L237 359L189 347L142 293L95 371L47 347L0 347Z" fill="#0a577e"></path><path d="M0 403L47 409L95 427L142 361L189 409L237 433L284 421L332 397L379 433L426 421L474 409L521 367L568 403L616 379L663 433L711 403L758 397L805 421L853 397L900 373L900 347L853 371L805 407L758 365L711 377L663 395L616 365L568 365L521 347L474 395L426 383L379 413L332 365L284 383L237 407L189 377L142 335L95 395L47 371L0 377Z" fill="#0a577e"></path><path d="M0 421L47 457L95 475L142 421L189 463L237 487L284 469L332 457L379 463L426 445L474 469L521 421L568 445L616 451L663 457L711 457L758 439L805 463L853 421L900 427L900 371L853 395L805 419L758 395L711 401L663 431L616 377L568 401L521 365L474 407L426 419L379 431L332 395L284 419L237 431L189 407L142 359L95 425L47 407L0 401Z" fill="#0c5379"></path><path d="M0 463L47 475L95 499L142 457L189 499L237 511L284 487L332 487L379 475L426 475L474 517L521 451L568 463L616 475L663 469L711 481L758 463L805 487L853 457L900 469L900 425L853 419L805 461L758 437L711 455L663 455L616 449L568 443L521 419L474 467L426 443L379 461L332 455L284 467L237 485L189 461L142 419L95 473L47 455L0 419Z" fill="#104b6c"></path><path d="M0 511L47 523L95 523L142 505L189 523L237 541L284 505L332 535L379 523L426 511L474 547L521 505L568 511L616 499L663 517L711 505L758 487L805 529L853 505L900 511L900 467L853 455L805 485L758 461L711 479L663 467L616 473L568 461L521 449L474 515L426 473L379 473L332 485L284 485L237 509L189 497L142 455L95 497L47 473L0 461Z" fill="#124260"></path><path d="M0 529L47 541L95 541L142 529L189 541L237 559L284 529L332 565L379 559L426 541L474 559L521 517L568 547L616 517L663 547L711 517L758 517L805 565L853 535L900 541L900 509L853 503L805 527L758 485L711 503L663 515L616 497L568 509L521 503L474 545L426 509L379 521L332 533L284 503L237 539L189 521L142 503L95 521L47 521L0 509Z" fill="#133a54"></path><path d="M0 601L47 601L95 601L142 601L189 601L237 601L284 601L332 601L379 601L426 601L474 601L521 601L568 601L616 601L663 601L711 601L758 601L805 601L853 601L900 601L900 539L853 533L805 563L758 515L711 515L663 545L616 515L568 545L521 515L474 557L426 539L379 557L332 563L284 527L237 557L189 539L142 527L95 539L47 539L0 527Z" fill="#133248"></path></svg>
